X:1
T:The Bold Soldier
M:4/4
L:1/8
K:C
 G2 GG c2 G3/2 G/2| GG GE F3 E| F2 GA G2 EE| FF DB, C3 E| GG GG c2 G3/2 G/2|\
 GG GE F3 E| FF GA G2 E3/2 E/2| FF DB, C2 G3/2 G/2| G B2- B2 A G3/2 F/2|\
 F E3- E2 G3/2 G/2| G B4 AF D| C4 z4|
